dist/svg/file-image-o.svg

<!-- Generated by Trend Micro Style Portal -->
<svg version="1.1" xmlns="http://www.w3.org/2000/svg" width="16" height="16" viewBox="0 0 16 16">
  <title>file-image-o</title>
  <path fill="rgb(34,34,34)" d="M11 0h-9c-0.5 0-1 0.5-1 1v14c0 0.5 0.5 1 1 1h12c0.5 0 1-0.5 1-1v-11l-4-4zM11 1.4l2.6 2.6h-2.6v-2.6zM14 15h-12v-14h8v4h4v10zM3.5 6.5c0-0.8 0.7-1.5 1.5-1.5s1.5 0.7 1.5 1.5c0 0.8-0.7 1.5-1.5 1.5s-1.5-0.7-1.5-1.5zM10 7l3 4v3h-10v-2l2-3 2 2.5 3-4.5z"></path>
</svg>

<svg width="16" height="16" viewBox="0 0 16 16" fill="rgb(34, 34, 34)" xmlns="http://www.w3.org/2000/svg"><title>file-image-o</title><path d="M11 0H2C1.5 0 1 0.5 1 1V15C1 15.5 1.5 16 2 16H14C14.5 16 15 15.5 15 15V4L11 0ZM11 1.4L13.6 4H11V1.4ZM14 15H2V1H10V5H14V15ZM3.5 6.5C3.5 5.7 4.2 5 5 5C5.8 5 6.5 5.7 6.5 6.5C6.5 7.3 5.8 8 5 8C4.2 8 3.5 7.3 3.5 6.5ZM10 7L13 11V14H3V12L5 9L7 11.5L10 7Z" fill="rgb(34, 34, 34)" fill-opacity="1.00"/></svg>
